svg/fluentui-system-icons/ic_fluent_fast_forward_24_regular.svg

<svg width="24" height="24" viewBox="0 0 24 24" fill="none" xmlns="http://www.w3.org/2000/svg">
<path d="M11.5 5.50289C11.5 4.22384 12.9981 3.5316 13.9722 4.36058L21.3819 10.6668C22.203 11.3656 22.203 12.6334 21.3819 13.3322L13.9721 19.6381C12.9981 20.4671 11.5 19.7748 11.5 18.4958V14.5091L5.47215 19.639C4.4981 20.4679 3 19.7757 3 18.4966V5.50373C3 4.22468 4.49813 3.53244 5.47218 4.36142L11.5 9.49148V5.50289ZM11.5 11.4612L4.5 5.50373V18.4966L11.5 12.5395V11.4612ZM20.4098 11.8091L13 5.50289V18.4958L20.4098 12.1899C20.5271 12.0901 20.5271 11.9089 20.4098 11.8091Z" fill="#212121"/>
</svg>

<svg xmlns="http://www.w3.org/2000/svg" width="24" height="24"><path d="M11.5 5.503c0-1.28 1.498-1.971 2.472-1.142l7.41 6.306a1.75 1.75 0 0 1 0 2.665l-7.41 6.306c-.974.83-2.472.137-2.472-1.142v-3.987l-6.028 5.13C4.498 20.468 3 19.776 3 18.497V5.504c0-1.28 1.498-1.972 2.472-1.143l6.028 5.13V5.503Zm0 5.958-7-5.957v12.993l7-5.957v-1.08Zm8.91.348L13 5.503v12.993l7.41-6.306a.25.25 0 0 0 0-.38Z"/></svg>
